public/illustrations/_wind.svg

<svg width="249" height="245" viewBox="0 0 249 245" fill="none" xmlns="http://www.w3.org/2000/svg">
<path d="M92.0495 33.1595C94.5697 32.3241 96.4389 33.4001 98.3078 34.4762C103.49 37.6618 108.332 41.244 112.665 45.4774C119.461 51.8629 125.903 58.7582 131.722 66.0215C132.713 67.2817 133.719 68.4003 134.851 69.6746C137.315 66.9703 139.481 64.3792 141.917 61.9722C144.678 59.1688 147.58 56.3796 150.596 53.8877C159.813 46.0155 169.639 39.0636 179.947 32.7488C187.012 28.6004 194.544 25.2306 202.289 22.4555C203.181 22.1299 204.215 21.8326 205.22 21.8043C205.928 21.8892 206.763 21.9884 207.457 22.2149C208.122 22.5831 208.774 23.0927 209.269 23.7157C209.765 24.3386 210.105 25.1032 210.161 25.8253C210.218 26.5474 210.26 27.4112 209.892 28.0766C209.425 29.5916 208.83 30.9507 207.967 32.2675C204.823 37.0248 201.85 41.6547 198.579 46.2562C191.358 56.507 182.58 65.441 172.811 73.1008C165.745 78.5236 158.071 83.0261 149.831 86.3109C149.095 86.5091 148.33 86.9905 147.962 87.6559C147.594 88.3214 147.212 89.1285 147.268 89.8506C149.449 90.6859 151.757 91.6769 154.22 92.5406C163.438 95.3581 172.259 99.1244 180.853 103.443C182.722 104.519 184.265 103.57 186.19 102.947C186.856 101.036 187.521 98.9687 188.343 96.9299C194.332 82.6722 203.011 69.8869 213.899 58.7865C219.591 52.9107 225.679 47.3747 232.886 43.2404C234.259 42.5466 235.633 41.7113 236.992 41.1733C239.116 40.1397 241.466 39.5732 243.519 41.3856C244.553 42.2209 245.289 43.3112 245.713 44.5005C246.138 45.6899 246.11 47.1199 245.813 48.3658C245.26 50.5746 244.708 52.7975 243.873 54.9779C239.399 68.4145 231.187 79.8403 222.593 90.7849C216.434 98.1757 209.609 105.057 202.303 111.301L202.218 112.009C202.232 116.568 204.724 119.583 208.236 122.429C214.904 127.512 220.086 134.124 225.127 140.864C230.167 147.603 235.222 154.201 239.172 161.663C242.896 168.671 246.45 175.807 247.908 183.821C248.191 184.996 248.206 186.143 248.064 187.262C247.951 188.239 247.54 189.201 246.903 189.824C246.237 190.603 245.345 190.915 244.34 190.943C240.97 191.679 237.346 190.957 234.429 189.173C223.329 181.853 213.559 172.976 205.262 162.555C204.88 162.229 204.498 161.748 203.875 161.097C204.413 170.852 203.45 180.012 204.045 189.357C204.37 196.097 204.13 202.921 204.172 209.618C204.215 216.329 204.568 222.927 204.639 229.497C204.724 232.357 204.682 235.061 204.484 237.893C204.073 241.263 202.544 243.358 199.358 243.698C194.289 244.377 189.122 244.604 184.01 244.42C179.465 244.307 176.903 240.71 176.888 236.01C176.945 234.311 176.605 232.413 176.393 230.672C176.35 229.808 176.308 228.945 176.294 227.953C176.364 221.398 176.421 214.998 176.506 208.443C176.478 201.59 176.605 194.624 176.435 187.757C176.407 180.904 176.209 174.179 176.025 167.454C176.025 162.753 176.025 158.038 175.883 153.182C175.855 146.329 175.841 139.349 175.671 132.482C175.741 131.916 175.416 131.024 175.614 130.627C176.732 128.475 175.302 127.314 174.184 125.898C165.604 126.153 157.802 123.364 149.874 120.546C148.854 121.849 149.236 123.463 149.066 124.865C148.712 127.81 148.939 130.698 148.585 133.643C148.43 134.903 148.557 136.206 149.293 137.296C150.468 139.434 151.629 141.572 152.507 143.809C154.178 147.717 153.668 149.515 149.973 151.78C149.661 152.021 149.477 152.29 149.166 152.545C149.081 156.806 148.982 161.224 148.854 165.769C148.84 169.479 148.812 173.174 148.798 176.883L148.769 193.704C148.713 196.55 148.812 199.268 148.769 202.114C148.812 206.546 148.684 211.091 148.585 215.494C148.543 217.051 148.359 218.609 148.033 220.138C147.509 223.352 145.909 224.725 142.723 225.207C137.357 225.985 132.26 224.513 127.517 222.375C126.158 221.78 125.138 220.803 124.431 219.586C123.723 218.354 123.326 216.881 123.354 215.466C123.156 211.161 123.255 206.758 123.213 202.468C123.269 196.054 123.184 189.626 123.241 183.226C123.34 177.676 123.425 172.268 123.51 166.717C123.51 160.728 123.524 154.739 123.552 148.609C123.637 146.768 123.723 144.786 123.836 142.648C113.939 137.183 104.877 130.67 96.6794 122.982C96.4529 123.661 96.2265 124.355 96.1557 124.921C96.1982 132.907 96.2124 141.048 96.2549 149.033C96.3965 156.183 96.538 163.334 96.5238 170.455C96.4955 175.439 96.4671 180.437 96.4388 185.421C96.3822 190.688 96.6088 195.856 96.5522 201.123C96.4956 206.39 96.4247 211.657 96.5238 216.811C96.453 219.798 96.6797 222.672 96.5947 225.66C96.5098 229.921 96.4389 234.056 96.2124 238.303C96.0425 239.705 95.4477 241.064 94.3292 242.069C93.2106 243.075 91.8798 243.486 90.4497 243.457C86.0464 243.358 81.813 242.99 77.4097 242.749C76.5601 242.65 75.583 242.523 74.776 242.14C73.53 241.843 72.3266 241.135 71.6045 240.045C70.8824 238.955 70.4575 237.765 70.4575 236.491C70.5283 233.504 70.3019 230.629 70.2453 227.628C70.2736 219.076 70.302 210.524 70.3445 201.972C70.4436 196.422 70.5426 190.872 70.6134 185.463C70.6984 177.634 70.5001 169.762 70.5709 162.073C70.6275 156.806 70.6985 151.54 70.7552 146.273C70.7552 140.425 70.7552 134.436 70.7552 128.588C70.8118 125.743 70.854 123.038 70.8398 119.612C66.8188 122.259 63.2649 124.553 59.8385 126.847C53.4813 131.08 46.912 134.705 39.9742 137.862C31.8189 141.586 23.2245 143.115 14.4036 144.191C11.5011 144.559 8.49956 144.616 5.65367 144.559C1.22201 144.602 -1.35517 140.014 0.740311 135.554C1.2925 134.478 1.97238 133.558 2.77942 132.808C6.94207 127.895 11.6001 123.463 16.768 119.654C29.6807 109.517 44.0519 101.545 59.3857 96.1227C61.7644 95.2732 64.2562 94.7069 66.7481 94.1547C69.8206 93.5317 71.0522 91.5354 70.1177 88.7178C67.3143 78.821 65.8278 68.6692 65.6437 58.3759C65.5021 53.6469 65.3606 48.9321 65.3465 44.2173C65.3465 43.0704 65.3464 41.9379 65.6154 40.8335C66.3658 34.6462 66.8048 28.5722 67.8242 22.4132C68.8153 16.5374 70.2169 10.8597 71.6045 5.1821C71.6753 4.61575 72.185 3.96447 72.3833 3.42644C72.6381 2.46366 73.3177 1.54332 74.1106 0.920343C75.0451 0.325682 75.9372 0 77.0699 0C78.0468 0.113269 79.0378 0.240751 79.8307 0.76462C80.6236 1.28849 81.2467 2.08133 81.7139 2.84589C82.8608 5.12543 84.0218 7.40499 84.8713 9.78364C87.3066 16.778 90.0249 23.8148 91.1293 31.2198C91.3417 31.8144 91.5541 32.4091 91.9081 33.0179L92.0353 33.1737L92.0495 33.1595ZM194.629 234.311C194.573 231.167 194.629 228.322 194.558 225.461C194.488 218.892 194.431 212.322 194.346 205.894C194.176 196.606 194.035 187.177 193.865 177.889C193.794 174.887 193.992 172.055 194.063 169.068C193.964 163.928 193.879 158.774 193.765 153.777C193.695 150.775 194.091 147.547 193.298 144.588C192.406 141.345 190.636 138.273 189.15 135.243C187.012 136.418 187.097 138.131 187.04 139.689L186.233 152.29C186.12 153.267 185.992 154.258 186.148 155.419C186.262 163.985 186.502 172.579 186.474 181.131C186.488 188.125 186.474 195.247 186.502 202.242C186.601 209.675 186.573 217.08 186.814 224.527C186.984 227.826 186.021 231.139 187.295 234.707L194.318 234.41L194.615 234.296L194.629 234.311ZM87.0376 233.631C87.0093 231.493 87.0942 229.638 87.0093 227.925C87.0376 222.941 87.0656 217.943 87.094 212.96C87.0515 207.395 86.995 201.972 86.9242 196.536C86.9526 191.552 86.8392 186.539 86.8675 181.556C86.7968 176.275 86.6975 171.121 86.7542 165.854C86.7825 160.87 86.8109 155.872 86.8392 150.888C86.8675 145.904 86.6412 140.736 86.6836 135.611C86.627 130.188 86.8393 124.794 86.9101 119.527C86.811 117.941 86.7259 116.37 86.4711 114.911L81.6998 115.478C81.6007 135.285 81.3741 154.938 81.3033 174.476C81.2325 194.001 81.1616 213.54 81.1899 233.504L87.1507 233.787L87.0234 233.631H87.0376ZM85.834 86.0418C88.2268 74.4884 82.8891 29.9313 78.4716 22.8378C74.4505 40.89 75.5549 76.683 80.2697 86.0843L85.834 86.0418ZM125.846 110.239C127.106 108.115 125.762 107.379 124.572 106.657C120.466 104.023 116.87 100.738 113.769 96.9439C112.141 95.0325 110.852 92.7389 109.847 90.4876C109.493 89.8788 109.295 89.1426 109.38 88.4347C109.465 87.7268 109.55 87.0329 109.918 86.3533C110.286 85.6737 110.767 85.1782 111.39 84.8242C111.999 84.4702 112.622 84.1162 113.33 84.0596C114.647 83.7906 115.921 83.8048 117.068 83.7906C118.187 83.9322 119.333 83.9181 121.174 84.0031C112.183 79.359 104.028 73.6672 96.5805 66.7862C96.5097 67.3525 96.3113 67.8905 96.3963 68.3294C96.9202 75.8051 97.1468 83.3942 95.3911 90.8841C95.292 91.7336 95.3345 92.5832 95.8301 93.2203C96.3115 93.9849 96.9628 94.4945 97.6424 94.721C98.053 94.9193 98.591 95.1176 99.0016 95.3158C108.714 98.7705 117.818 103.712 125.889 110.097V110.239H125.846ZM16.0601 133.827C17.6175 133.87 18.4672 133.969 19.0477 133.898C26.566 133.091 33.8434 130.684 40.5405 127.073C50.1542 121.806 59.7536 116.695 67.6825 108.951C68.8718 107.761 68.9661 106.204 67.9656 104.278C48.7098 110.239 30.9552 120.362 15.9187 133.813H16.0601V133.827ZM145.583 77.8158C167.968 68.3861 184.931 50.6028 191.798 38.5963C180.669 42.2493 151.926 64.1809 143.714 75.5928L145.442 77.8016H145.583V77.8158ZM235.165 177.167C231.895 164.084 207.896 132.383 198.877 127.881C196.753 128.914 197.73 130.316 198.424 131.675C204.951 146.145 214.253 158.959 225.92 169.776C228.723 172.537 231.838 175.057 235.18 177.025V177.167H235.165ZM133.86 146.711L133.407 212.11L138.886 211.629C139 190.532 139.099 169.592 139.354 148.51L133.86 146.711ZM96.9203 105.34C96.6088 105.581 96.4248 105.85 96.2549 106.119C96.085 106.388 96.0281 106.798 95.9856 107.223C95.9432 107.648 96.0422 107.945 96.2829 108.257C96.5236 108.568 96.7785 108.88 97.0475 109.064C98.8315 110.848 100.757 112.646 102.541 114.43C111.744 123.237 121.967 130.74 133.775 135.724C134.582 136.107 135.545 136.361 136.395 136.461C126.144 122.104 113.486 111.173 96.9487 105.184V105.326L96.9203 105.34ZM197.73 101.928C213.984 88.916 231.64 63.0767 232.348 56.0398C216.858 67.4375 201.241 89.369 197.73 101.928ZM126.696 94.9476L126.583 95.9245C140.968 105.496 156.075 113.878 173.632 116.129C173.943 115.888 174.127 115.619 174.297 115.35C175.336 113 174.68 111.353 172.329 110.409C162.659 106.671 152.989 102.806 143.262 99.4925C137.91 97.7085 132.218 96.4484 126.696 94.9335V94.9476ZM94.2158 43.6934L93.5929 44.1891C93.6779 44.628 93.7486 45.2084 93.8477 45.6473C93.9326 48.5073 94.1734 51.2542 97.4298 52.6417C97.8546 52.6984 98.0528 53.4345 98.4351 53.7602C104.991 62.1137 113.67 68.1453 122.547 73.7804C123.482 74.3185 124.43 74.715 125.379 75.1256L125.747 74.4602C116.261 63.1899 106.789 51.9337 94.2158 43.7076V43.6934ZM193.284 118.649C193.425 117.531 193.015 116.185 192.265 115.251C191.528 114.302 190.467 113.609 189.362 113.34C186.969 113.056 183.826 115.52 183.486 118.338C183.146 121.155 185.086 123.944 187.366 124.086C189.914 124.256 193.128 121.212 193.454 118.55L193.298 118.677L193.284 118.649ZM87.5188 101.645C87.6037 100.937 87.6889 100.243 87.3349 99.6199C87.1225 99.0252 86.9099 98.4307 86.4144 97.7935C85.9188 97.1564 85.3952 96.8165 84.8571 96.4625C84.3333 96.1086 83.6252 96.0236 82.9172 95.9387C81.7987 95.7971 80.5951 96.236 79.6748 96.8307C78.7404 97.4253 78.0468 98.4873 77.7778 99.5917C77.622 100.852 78.1741 102.211 79.0519 103.174C79.9298 104.136 80.9917 104.83 82.2518 104.986C83.3703 105.128 84.5456 104.83 85.48 104.236C86.4145 103.641 87.1084 102.579 87.3774 101.475L87.5046 101.63L87.5188 101.645ZM137.74 87.2878C137.371 83.2526 136.649 82.1623 134.54 81.9074C132.713 81.6809 131.92 82.304 130.802 85.7304L137.881 87.302H137.74V87.2878ZM136.663 113.977C135.602 119.272 135.913 120.164 139.34 122.571C139.34 120.15 139.339 117.87 139.198 115.421L136.663 113.977Z" fill="#102185"/>
</svg>

<svg xmlns="http://www.w3.org/2000/svg" width="249" height="245" fill="none" viewBox="0 0 249 245"><path fill="#102185" d="M92.05 33.16c2.52-.836 4.389.24 6.258 1.316 5.182 3.186 10.024 6.768 14.357 11.001 6.796 6.386 13.238 13.281 19.057 20.545.991 1.26 1.997 2.378 3.129 3.653 2.464-2.705 4.63-5.296 7.066-7.703 2.761-2.803 5.663-5.592 8.679-8.084 9.217-7.872 19.043-14.824 29.351-21.14 7.065-4.148 14.597-7.517 22.342-10.292.892-.326 1.926-.623 2.931-.652.708.085 1.543.184 2.237.41.665.37 1.317.879 1.812 1.502s.836 1.387.892 2.11c.057.721.099 1.585-.269 2.25-.467 1.516-1.062 2.875-1.925 4.191-3.144 4.758-6.117 9.388-9.388 13.99-7.221 10.25-15.999 19.184-25.768 26.844-7.066 5.423-14.74 9.925-22.98 13.21-.736.198-1.501.68-1.869 1.345s-.75 1.472-.694 2.195c2.181.835 4.489 1.826 6.952 2.69 9.218 2.817 18.039 6.583 26.633 10.902 1.869 1.076 3.412.127 5.337-.496.666-1.911 1.331-3.978 2.153-6.017 5.989-14.258 14.668-27.043 25.556-38.144 5.692-5.875 11.78-11.411 18.987-15.546 1.373-.693 2.747-1.529 4.106-2.067 2.124-1.033 4.474-1.6 6.527.213a7 7 0 0 1 2.194 3.114c.425 1.19.397 2.62.1 3.866-.553 2.209-1.105 4.432-1.94 6.612-4.474 13.437-12.686 24.862-21.28 35.807a171.4 171.4 0 0 1-20.29 20.516l-.085.708c.014 4.559 2.506 7.574 6.018 10.42 6.668 5.083 11.85 11.695 16.891 18.435s10.095 13.337 14.045 20.799c3.724 7.008 7.278 14.144 8.736 22.158.283 1.175.298 2.322.156 3.441-.113.977-.524 1.939-1.161 2.562-.666.779-1.558 1.091-2.563 1.119-3.37.736-6.994.014-9.911-1.77-11.1-7.32-20.87-16.197-29.167-26.618-.382-.326-.764-.807-1.387-1.458.538 9.755-.425 18.915.17 28.26.325 6.74.085 13.564.127 20.261.043 6.711.396 13.309.467 19.879.085 2.86.043 5.564-.155 8.396-.411 3.37-1.94 5.465-5.126 5.805a91 91 0 0 1-15.348.722c-4.545-.113-7.107-3.71-7.122-8.41.057-1.699-.283-3.597-.495-5.338a73 73 0 0 1-.099-2.719c.07-6.555.127-12.955.212-19.51-.028-6.853.099-13.819-.071-20.686-.028-6.853-.226-13.578-.41-20.303 0-4.701 0-9.416-.142-14.272-.028-6.853-.042-13.833-.212-20.7.07-.566-.255-1.458-.057-1.855 1.118-2.152-.312-3.313-1.43-4.729-8.58.255-16.382-2.534-24.31-5.352-1.02 1.303-.638 2.917-.808 4.319-.354 2.945-.127 5.833-.481 8.778-.155 1.26-.028 2.563.708 3.653 1.175 2.138 2.336 4.276 3.214 6.513 1.671 3.908 1.161 5.706-2.534 7.971-.312.241-.496.51-.807.765-.085 4.261-.184 8.679-.312 13.224-.014 3.71-.042 7.405-.056 11.114l-.029 16.821c-.056 2.846.043 5.564 0 8.41.043 4.432-.085 8.977-.184 13.38a25.6 25.6 0 0 1-.552 4.644c-.524 3.214-2.124 4.587-5.31 5.069-5.366.778-10.463-.694-15.206-2.832-1.359-.595-2.379-1.572-3.086-2.789-.708-1.232-1.105-2.705-1.077-4.12-.198-4.305-.099-8.708-.141-12.998.056-6.414-.029-12.842.028-19.242.099-5.55.184-10.958.269-16.509 0-5.989.014-11.978.042-18.108.085-1.841.171-3.823.284-5.961-9.897-5.465-18.959-11.978-27.157-19.666-.226.679-.453 1.373-.523 1.939.042 7.986.056 16.127.099 24.112.142 7.15.283 14.301.269 21.422l-.085 14.966c-.057 5.267.17 10.435.113 15.702-.056 5.267-.127 10.534-.028 15.688-.071 2.987.156 5.861.07 8.849-.084 4.261-.155 8.396-.382 12.643-.17 1.402-.764 2.761-1.883 3.766-1.118 1.006-2.45 1.417-3.88 1.388-4.403-.099-8.636-.467-13.04-.708-.849-.099-1.826-.226-2.633-.609-1.246-.297-2.45-1.005-3.171-2.095-.723-1.09-1.148-2.28-1.148-3.554.071-2.987-.155-5.862-.212-8.863.029-8.552.057-17.104.1-25.656.099-5.55.198-11.1.268-16.509.085-7.829-.113-15.701-.042-23.39.056-5.267.127-10.533.184-15.8v-17.685c.057-2.845.099-5.55.085-8.976-4.021 2.647-7.575 4.941-11.001 7.235-6.358 4.233-12.927 7.858-19.865 11.015-8.155 3.724-16.75 5.253-25.57 6.329-2.903.368-5.904.425-8.75.368-4.432.043-7.01-4.545-4.914-9.005.553-1.076 1.232-1.996 2.04-2.746 4.162-4.913 8.82-9.345 13.988-13.154 12.913-10.137 27.284-18.109 42.618-23.531 2.378-.85 4.87-1.416 7.362-1.968 3.073-.623 4.304-2.62 3.37-5.437a118.9 118.9 0 0 1-4.474-30.342c-.142-4.73-.283-9.444-.297-14.159 0-1.147 0-2.28.268-3.383.75-6.188 1.19-12.262 2.21-18.42.99-5.877 2.392-11.554 3.78-17.232.07-.566.58-1.218.778-1.756.255-.962.935-1.883 1.728-2.506C75.045.326 75.937 0 77.07 0c.977.113 1.968.24 2.76.765.794.523 1.417 1.316 1.884 2.08 1.147 2.28 2.308 4.56 3.157 6.939 2.436 6.994 5.154 14.03 6.258 21.436.213.594.425 1.19.78 1.798l.126.156zM194.628 234.31c-.056-3.144 0-5.989-.071-8.85-.07-6.569-.127-13.139-.212-19.567-.17-9.288-.311-18.717-.481-28.005-.071-3.002.127-5.834.198-8.821-.099-5.14-.184-10.294-.298-15.291-.07-3.002.326-6.23-.467-9.189-.892-3.243-2.662-6.315-4.148-9.345-2.138 1.175-2.053 2.888-2.11 4.446l-.807 12.601c-.113.977-.241 1.968-.085 3.129.114 8.566.354 17.16.326 25.712.014 6.994 0 14.116.028 21.111.099 7.433.071 14.838.312 22.285.17 3.299-.793 6.612.481 10.18l7.023-.297.297-.114zm-107.591-.68c-.029-2.138.056-3.993-.029-5.706l.085-14.965c-.042-5.565-.099-10.988-.17-16.424.029-4.984-.085-9.997-.056-14.98-.071-5.281-.17-10.435-.114-15.702l.085-14.966c.029-4.984-.198-10.152-.155-15.277-.057-5.423.155-10.817.226-16.084-.099-1.586-.184-3.157-.439-4.616l-4.771.567c-.1 19.807-.326 39.46-.397 58.998-.07 19.525-.141 39.064-.113 59.028l5.96.283-.127-.156zm-1.204-147.59c2.393-11.553-2.945-56.11-7.362-63.203-4.021 18.052-2.917 53.845 1.798 63.246zm40.012 24.198c1.26-2.124-.084-2.86-1.274-3.582-4.106-2.634-7.702-5.919-10.803-9.713-1.628-1.912-2.917-4.205-3.922-6.456-.354-.61-.552-1.345-.467-2.053s.17-1.402.538-2.082.849-1.175 1.472-1.529c.609-.354 1.232-.708 1.94-.764 1.317-.27 2.591-.255 3.738-.27 1.119.142 2.265.128 4.106.213-8.991-4.644-17.146-10.336-24.594-17.217-.07.567-.269 1.105-.184 1.543.524 7.476.75 15.065-1.005 22.555-.099.85-.056 1.7.44 2.336.48.765 1.132 1.275 1.811 1.501.411.198.949.397 1.36.595 9.712 3.454 18.816 8.396 26.887 14.781v.142zM16.06 133.827c1.558.043 2.407.142 2.988.071 7.518-.807 14.795-3.214 21.493-6.825 9.613-5.267 19.213-10.378 27.142-18.122q1.783-1.784.283-4.673c-19.256 5.961-37.01 16.084-52.047 29.535h.141zm129.523-56.011c22.385-9.43 39.348-27.213 46.215-39.22-11.129 3.653-39.872 25.585-48.084 36.997l1.728 2.209h.141zm89.582 99.351c-3.27-13.083-27.269-44.784-36.288-49.286-2.124 1.033-1.147 2.435-.453 3.794 6.527 14.47 15.829 27.284 27.496 38.101 2.803 2.761 5.918 5.281 9.26 7.249v.142zM133.86 146.711l-.453 65.399 5.479-.481c.114-21.097.213-42.037.468-63.119zM96.92 105.34c-.311.241-.495.51-.665.779s-.227.679-.27 1.104c-.042.425.057.722.298 1.034.24.311.495.623.764.807 1.785 1.784 3.71 3.582 5.494 5.366 9.203 8.807 19.426 16.31 31.234 21.294.807.383 1.77.637 2.62.737-10.251-14.357-22.909-25.288-39.446-31.277v.142zm100.81-3.412c16.254-13.012 33.91-38.851 34.618-45.888-15.49 11.398-31.107 33.329-34.618 45.888m-71.034-6.98-.113.977c14.385 9.571 29.492 17.953 47.049 20.204.311-.241.495-.51.665-.779q1.558-3.525-1.968-4.941c-9.67-3.738-19.34-7.603-29.067-10.916-5.352-1.784-11.044-3.045-16.566-4.56zm-32.48-51.255-.623.496c.085.439.156 1.02.255 1.458.085 2.86.325 5.607 3.582 6.995.425.056.623.792 1.005 1.118 6.556 8.354 15.235 14.385 24.112 20.02.935.538 1.883.935 2.832 1.346l.368-.666c-9.486-11.27-18.958-22.526-31.531-30.752zm99.068 74.956c.141-1.118-.269-2.464-1.019-3.398-.737-.949-1.798-1.642-2.903-1.911-2.393-.284-5.536 2.18-5.876 4.998s1.6 5.606 3.88 5.748c2.548.17 5.762-2.874 6.088-5.536l-.156.127zM87.519 101.645c.085-.708.17-1.402-.184-2.025-.212-.595-.425-1.19-.92-1.827s-1.02-.977-1.558-1.33c-.524-.354-1.232-.44-1.94-.524-1.118-.142-2.322.297-3.242.892-.935.594-1.628 1.656-1.897 2.76-.156 1.261.396 2.62 1.274 3.583.878.962 1.94 1.656 3.2 1.812 1.118.142 2.294-.156 3.228-.75.934-.595 1.628-1.657 1.897-2.761l.128.155zm50.221-14.357c-.369-4.035-1.091-5.126-3.2-5.38-1.827-.227-2.62.396-3.738 3.822l7.079 1.572h-.141zm-1.077 26.689c-1.061 5.295-.75 6.187 2.677 8.594 0-2.421-.001-4.701-.142-7.15z"/></svg>
